X:1
T:Amoroso pastorello
T:Amoroso pastorello
T:Giovanni Ghizzolo
C:Giovanni Ghizzolo
%%score 1 2 { 3 | 4 }
L:1/8
Q:1/4=120
M:3/4
K:F
V:1 treble nm="Soprano" snm="S"
V:2 bass nm="Bass" snm="B"
V:3 treble nm="MusicXML Part"
V:4 bass 
V:1
"^Source: Madrigali et Arie---Libro terzo---Venetia---A.Raverij---1609.\nEditor: André Vierendeels (26/12/09)\nContinuo: André Vierendeels" AB c3 F | %1
w: A- mo- ro- so|
w: Es- ca pla- ci-|
w: Quan- to piu sa-|
w: An' se tu spie-|
 G>A F2"^ARIA" F2 | Bc d3 G | A>B G2 G2 :: Bc d3 _e | c>B B2 B2 | d4 cB | AG FG Ac | A6 | G6 :| %10
w: pas- to- rel- lo|se ti cre- di'es-|ser piu bel- lo,|di quel va- go'e|bei Nar- ci- so|fu- ga le|lim- pi d'ac- qu'il tuo bel|vi-|so.|
w: da qui- e- te|O t'in- vi- te's-|ti- va se- te,|ec- co gl'oc- chi|miei son pron- ti|stil- lar ohi|me di la- gri- me due|fon-|ti.|
w: ran- no'a- ma- re|tu cru- del l'ha-|vrai piu ca- re,|gio- i- rai ch'in|pian- to tut- ta|mi- se- ra-|men- to mi ve- drai di-|strut-|ta.|
w: ta- ta fie- ra?|Tan- to go- di|pur ch'io pe- ra?|Ho ch'el pian- to'e'l|lan- gue be- i|ch'in la- gri-|me ca- dra- da gl'oc- chi|mie-|i.|
V:2
 F,,G,, A,,3 A,, | C,C, F,,2 F,,2 | G,,A,, B,,3 B,, | C,D, G,,2 G,,2 :: G,A, B,2 _E,2 | %5
w: A- mo- ro- so|pas- to- rel- lo|se ti cre- di'es-|ser piu bel- lo,|di quel va- go'e|
w: Es- ca pla- ci-|da qui- e- te|O t'in- vi- te's-|ti- va se- te|ec- co gl'oc- chi|
w: Quan- to piu sa-|ran- no'a- ma- re|tu cru- del l'ha-|vrai piu ca- re,|gio- i- rai ch'in|
w: An' se tu spie-|ta- ta fie- ra?|Tan- to go- di|pur ch'io pe- ra?|Ho ch'el pian- to'e'l|
 F,F, B,,2 B,,2 | B,4 A,G, | G,_E, D,B,, A,,G,, | D,6 | G,,6 :| %10
w: bei Nar- ci- so,|fu- ga le|lim- pi d'ac- qu'il tuo bel|vi-|so.|
w: miei son pron- ti|stil- lar ohi|me di la- gri- me due|fon-|ti.|
w: pian- to tut- ta,|mi- se- ra-|men- to mi ve- drai di-|strut-|ta.|
w: lan- gue be- i|ch'in la- gri-|me ca- dra- da gl'oc- chi|mie-|i.|
V:3
 [FA]2 [FAc]4 | [EG]2 [FAc]4 | [DG]2 [DGB]4 | [EG]^F [DG=B]4 :: %4
 [DG]2 [GB]2 [Gc]2"^Note: original keys: Ut 1st, Fa 4rth." | [FA]2 [DFB]4 | [DF]4 [FA]2 | %7
 [FA]4 [EA]2 | [^FA]6 | [DG=B]6 :| %10
V:4
 F,,G,, A,,3 A,, | C,C, F,,2 F,,2 | G,,A,, B,,3 B,, | C,D, G,,2 G,,2 :: G,A, B,2 _E,2 | %5
 F,F, B,,2 B,,2 | B,4 A,G, | F,_E, D,B,, A,,G,, | D,6 | G,,6 :| %10

